icons/shopping-basket-2-line.svg

<svg xmlns="http://www.w3.org/2000/svg" width="24" height="24" fill="none"><g clip-path="url(#a)"><g><path fill="#121212" d="M15.366 3.43799L18.577 8.99999H22V11H20.833L20.076 20.083C20.0552 20.3329 19.9413 20.5658 19.7568 20.7357C19.5723 20.9055 19.3308 20.9999 19.08 21H4.92C4.66925 20.9999 4.4277 20.9055 4.24322 20.7357C4.05875 20.5658 3.94481 20.3329 3.924 20.083L3.166 11H2V8.99999H5.422L8.634 3.43799L10.366 4.43799L7.732 8.99999H16.267L13.634 4.43799L15.366 3.43799ZM18.826 11H5.173L5.84 19H18.159L18.826 11ZM13 13V17H11V13H13ZM9 13V17H7V13H9ZM17 13V17H15V13H17Z"/></g></g><defs><clipPath id="a"><rect width="24" height="24" fill="white"/></clipPath></defs></svg>

<svg width="24" height="24" fill="none" xmlns="http://www.w3.org/2000/svg"><g clip-path="url(#a)"><path d="M15.366 3.438 18.577 9H22v2h-1.167l-.757 9.083a1 1 0 0 1-.996.917H4.92a1 1 0 0 1-.996-.917L3.166 11H2V9h3.422l3.212-5.562 1.732 1L7.732 9h8.535l-2.633-4.562 1.732-1ZM18.826 11H5.173l.667 8h12.319l.667-8ZM13 13v4h-2v-4h2Zm-4 0v4H7v-4h2Zm8 0v4h-2v-4h2Z" /></g><defs><clipPath id="a"><path fill="#fff" d="M0 0h24v24H0z"/></clipPath></defs></svg>
